workbench/prefs/Presets/Colortables/ICC/FOGRA29L.ti3
CTI3

KEYWORD "DEVICE_CLASS"
DEVICE_CLASS "OUTPUT"
KEYWORD "COLOR_REP"
COLOR_REP "CMYK_LAB"

ORIGINATOR       "FOGRA, www.fogra.org"
DESCRIPTOR       "FOGRA29"
CREATED          "September 2003"
INSTRUMENTATION  "GRETAGMACBETH SpectroChart and SpectroScan, D50, 2 degree, geometry 45/0, no polarisation filter, white backing"
MEASUREMENT_SOURCE "GAS-FILLED TUNGSTEN"
PRINT_CONDITIONS "Offset printing according to ISO/DIS 12647-2:2004, OFCOM,  paper type 4 = white, uncoated, 120 g/m2, screen ruling 60 cm-1, positive-acting plates, see readme"
NUMBER_OF_FIELDS 11
BEGIN_DATA_FORMAT
SAMPLE_ID CMYK_C CMYK_M CMYK_Y CMYK_K XYZ_X XYZ_Y XYZ_Z LAB_L LAB_A LAB_B
END_DATA_FORMAT
NUMBER_OF_SETS 1485
BEGIN_DATA
1        0     0     0     0   86.44   89.31   76.37   95.71    0.61   -2.32
2        0    10     0     0   79.10   78.38   68.66   90.96    7.04   -3.73
3        0    20     0     0   71.90   68.03   61.00   86.02   13.66   -4.96
4        0    30     0     0   65.27   58.81   53.88   81.19   20.11   -5.96
5        0    40     0     0   59.38   50.77   47.35   76.54   26.52   -6.67
6        0    55     0     0   51.68   40.54   38.48   69.86   36.09   -7.08
7        0    70     0     0   45.62   32.71   30.98   63.93   45.11   -6.49
8        0    85     0     0   40.93   26.85   25.02   58.84   53.19   -5.35
9        0   100     0     0   37.72   22.97   20.87   55.04   59.46   -4.00
10      10     0     0     0   76.12   80.47   74.36   91.89   -2.94   -7.18
11      10    10     0     0   69.46   70.48   66.57   87.23    3.27   -8.22
12      10    20     0     0   63.22   61.31   59.23   82.55    9.61   -9.18
13      10    30     0     0   57.55   53.19   52.44   77.99   15.87   -9.93
14      10    40     0     0   52.43   46.04   46.22   73.57   22.01  -10.44
15      10    55     0     0   45.76   36.98   37.78   67.26   31.12  -10.60
16      10    70     0     0   40.37   29.87   30.63   61.54   39.81  -10.07
17      10    85     0     0   36.24   24.59   24.91   56.67   47.60   -8.89
18      10   100     0     0   33.34   21.02   20.91   52.97   53.66   -7.66
19      20     0     0     0   66.22   71.70   71.90   87.82   -6.37  -12.04
20      20    10     0     0   60.54   62.98   64.46   83.43   -0.42  -12.79
21      20    20     0     0   55.20   54.95   57.38   79.01    5.63  -13.40
22      20    30     0     0   50.37   47.86   50.99   74.74   11.58  -13.93
23      20    40     0     0   46.02   41.63   45.11   70.61   17.42  -14.22
24      20    55     0     0   40.28   33.62   37.11   64.66   26.12  -14.18
25      20    70     0     0   35.54   27.22   30.25   59.17   34.47  -13.55
26      20    85     0     0   31.85   22.40   24.75   54.45   41.97  -12.43
27      20   100     0     0   29.31   19.18   20.90   50.90   47.84  -11.21
28      30     0     0     0   57.30   63.62   69.33   83.77   -9.65  -16.73
29      30    10     0     0   52.61   56.16   62.31   79.70   -3.96  -17.14
30      30    20     0     0   48.07   49.17   55.64   75.56    1.83  -17.54
31      30    30     0     0   44.01   43.05   49.58   71.59    7.44  -17.77
32      30    40     0     0   40.29   37.58   43.99   67.71   12.98  -17.86
33      30    55     0     0   35.33   30.46   36.34   62.05   21.36  -17.61
34      30    70     0     0   31.22   24.77   29.84   56.85   29.33  -16.90
35      30    85     0     0   27.99   20.45   24.60   52.34   36.52  -15.79
36      30   100     0     0   25.75   17.53   20.91   48.92   42.17  -14.66
37      40     0     0     0   49.43   56.32   66.77   79.80  -12.76  -21.22
38      40    10     0     0   45.48   49.89   60.17   76.00   -7.34  -21.41
39      40    20     0     0   41.72   43.91   53.84   72.17   -1.85  -21.47
40      40    30     0     0   38.26   38.55   48.11   68.43    3.51  -21.54
41      40    40     0     0   35.13   33.81   42.80   64.81    8.80  -21.39
42      40    55     0     0   30.94   27.62   35.66   59.55   16.68  -20.97
43      40    70     0     0   27.39   22.55   29.44   54.61   24.32  -20.13
44      40    85     0     0   24.57   18.68   24.42   50.31   31.18  -18.98
45      40   100     0     0   22.58   16.03   20.93   47.02   36.58  -17.97
46      55     0     0     0   39.19   46.54   62.93   73.90  -17.11  -27.75
47      55    10     0     0   36.23   41.49   56.85   70.52  -12.12  -27.50
48      55    20     0     0   33.38   36.75   51.14   67.09   -7.08  -27.28
49      55    30     0     0   30.77   32.51   45.87   63.76   -2.12  -26.94
50      55    40     0     0   28.38   28.70   41.06   60.52    2.78  -26.58
51      55    55     0     0   25.11   23.65   34.46   55.74   10.07  -25.82
52      55    70     0     0   22.36   19.53   28.77   51.31   17.08  -24.74
53      55    85     0     0   20.14   16.33   24.17   47.40   23.38  -23.52
54      55   100     0     0   18.56   14.12   20.91   44.41   28.30  -22.42
55      70     0     0     0   31.06   38.46   59.15   68.36  -20.85  -33.57
56      70    10     0     0   28.82   34.49   53.63   65.35  -16.32  -33.01
57      70    20     0     0   26.68   30.75   48.42   62.29  -11.67  -32.47
58      70    30     0     0   24.71   27.39   43.68   59.33   -7.12  -31.92
59      70    40     0     0   22.89   24.35   39.28   56.44   -2.64  -31.29
60      70    55     0     0   20.43   20.35   33.29   52.23    3.98  -30.16
61      70    70     0     0   18.28   16.97   28.08   48.23   10.41  -28.90
62      70    85     0     0   16.57   14.36   23.86   44.75   16.14  -27.53
63      70   100     0     0   15.34   12.55   20.84   42.07   20.64  -26.32
64      85     0     0     0   24.75   31.95   55.63   63.30  -24.07  -38.65
65      85    10     0     0   23.07   28.83   50.63   60.63  -19.90  -37.85
66      85    20     0     0   21.45   25.86   45.91   57.90  -15.59  -37.10
67      85    30     0     0   19.96   23.20   41.57   55.28  -11.43  -36.27
68      85    40     0     0   18.59   20.77   37.59   52.70   -7.29  -35.46
69      85    55     0     0   16.72   17.58   32.12   48.98   -1.26  -34.01
70      85    70     0     0   15.09   14.88   27.39   45.47    4.50  -32.51
71      85    85     0     0   13.82   12.81   23.55   42.47    9.68  -30.88
72      85   100     0     0   12.87   11.32   20.77   40.11   13.68  -29.55
73     100     0     0     0   20.16   27.07   52.63   59.04  -26.66  -42.80
74     100    10     0     0   18.90   24.57   48.14   56.65  -22.73  -41.87
75     100    20     0     0   17.64   22.16   43.77   54.20  -18.75  -40.88
76     100    30     0     0   16.49   20.02   39.83   51.85  -14.92  -39.92
77     100    40     0     0   15.43   18.07   36.14   49.57  -11.17  -38.83
78     100    55     0     0   13.97   15.43   31.11   46.22   -5.58  -37.22
79     100    70     0     0   12.76   13.29   26.79   43.20   -0.36  -35.41
80     100    85     0     0   11.78   11.59   23.23   40.56    4.34  -33.57
81     100   100     0     0   11.08   10.39   20.74   38.54    7.97  -32.20
82       0     0    10     0   84.53   88.03   65.30   95.17   -0.65    6.66
83       0    10    10     0   76.95   76.72   58.55   90.19    6.05    4.68
84       0    20    10     0   69.95   66.52   52.22   85.26   12.79    2.86
85       0    30    10     0   63.63   57.56   46.42   80.50   19.37    1.25
86       0    40    10     0   57.97   49.74   41.01   75.91   25.83    0.03
87       0    55    10     0   50.62   39.85   33.69   69.36   35.41   -1.22
88       0    70    10     0   44.76   32.20   27.46   63.51   44.45   -1.53
89       0    85    10     0   40.29   26.55   22.47   58.55   52.48   -1.11
90       0   100    10     0   37.24   22.81   18.98   54.88   58.64   -0.35
91      10     0    10     0   73.83   78.70   63.13   91.10   -4.19    1.71
92      10    10    10     0   67.38   68.88   56.76   86.44    2.13    0.06
93      10    20    10     0   61.39   59.94   50.74   81.81    8.56   -1.46
94      10    30    10     0   55.98   52.07   45.25   77.33   14.86   -2.81
95      10    40    10     0   51.07   45.11   40.09   72.96   21.10   -3.86
96      10    55    10     0   44.69   36.28   33.10   66.73   30.32   -4.87
97      10    70    10     0   39.54   29.40   27.16   61.13   39.01   -5.11
98      10    85    10     0   35.58   24.25   22.34   56.34   46.84   -4.68
99      10   100    10     0   32.84   20.83   18.98   52.76   52.80   -3.99
100     20     0    10     0   64.03   70.07   61.04   87.03   -7.87   -3.26
101     20    10    10     0   58.56   61.51   54.99   82.65   -1.78   -4.63
102     20    20    10     0   53.47   53.70   49.25   78.29    4.37   -5.85
103     20    30    10     0   48.84   46.78   44.00   74.05   10.42   -6.94
104     20    40    10     0   44.69   40.71   39.14   69.97   16.37   -7.76
105     20    55    10     0   39.19   32.91   32.52   64.09   25.18   -8.56
106     20    70    10     0   34.72   26.75   26.81   58.74   33.57   -8.65
107     20    85    10     0   31.21   22.08   22.20   54.11   41.12   -8.25
108     20   100    10     0   28.79   18.96   18.95   50.64   46.92   -7.59
109     30     0    10     0   55.25   62.10   58.88   82.97  -11.28   -8.11
110     30    10    10     0   50.71   54.78   53.21   78.92   -5.53   -9.16
111     30    20    10     0   46.39   47.97   47.73   74.81    0.37  -10.10
112     30    30    10     0   42.53   42.02   42.80   70.88    6.12  -10.91
113     30    40    10     0   38.98   36.67   38.16   67.03   11.83  -11.52
114     30    55    10     0   34.29   29.80   31.87   61.48   20.27  -12.09
115     30    70    10     0   30.41   24.30   26.46   56.39   28.31  -12.09
116     30    85    10     0   27.36   20.13   22.07   51.99   35.50  -11.66
117     30   100    10     0   25.23   17.32   18.97   48.67   41.09  -11.04
118     40     0    10     0   47.51   54.95   56.75   79.01  -14.62  -12.74
119     40    10    10     0   43.71   48.62   51.38   75.22   -9.09  -13.54
120     40    20    10     0   40.13   42.80   46.26   71.42   -3.48  -14.20
121     40    30    10     0   36.87   37.61   41.56   67.73    2.00  -14.78
122     40    40    10     0   33.90   32.99   37.21   64.16    7.41  -15.18
123     40    55    10     0   29.92   26.96   31.22   58.93   15.50  -15.47
124     40    70    10     0   26.60   22.10   26.10   54.13   23.18  -15.36
125     40    85    10     0   23.95   18.36   21.92   49.93   30.10  -14.90
126     40   100    10     0   22.08   15.83   18.93   46.75   35.43  -14.26
127     55     0    10     0   37.39   45.25   53.48   73.06  -19.25  -19.55
128     55    10    10     0   34.61   40.37   48.62   69.73  -14.18  -19.88
129     55    20    10     0   31.93   35.77   43.93   66.34   -9.01  -20.14
130     55    30    10     0   29.47   31.65   39.68   63.05   -3.91  -20.41
131     55    40    10     0   27.22   27.96   35.67   59.85    1.09  -20.47
132     55    55    10     0   24.17   23.08   30.23   55.15    8.59  -20.45
133     55    70    10     0   21.60   19.11   25.51   50.81   15.67  -20.06
134     55    85    10     0   19.51   15.99   21.65   46.97   22.10  -19.49
135     55   100    10     0   18.04   13.89   18.90   44.07   27.06  -18.81
136     70     0    10     0   29.43   37.35   50.33   67.54  -23.42  -25.60
137     70    10    10     0   27.36   33.51   45.92   64.57  -18.73  -25.62
138     70    20    10     0   25.36   29.89   41.66   61.56  -13.92  -25.55
139     70    30    10     0   23.54   26.64   37.79   58.64   -9.23  -25.49
140     70    40    10     0   21.85   23.70   34.18   55.79   -4.59  -25.32
141     70    55    10     0   19.56   19.81   29.20   51.62    2.29  -24.89
142     70    70    10     0   17.61   16.61   24.93   47.77    8.83  -24.26
143     70    85    10     0   16.01   14.08   21.37   44.35   14.70  -23.46
144     70   100    10     0   14.86   12.32   18.84   41.71   19.30  -22.74
145     85     0    10     0   23.31   30.98   47.37   62.49  -26.86  -30.90
146     85    10    10     0   21.77   27.98   43.40   59.87  -22.59  -30.64
147     85    20    10     0   20.26   25.09   39.50   57.17  -18.09  -30.32
148     85    30    10     0   18.94   22.57   36.04   54.63  -13.81  -29.99
149     85    40    10     0   17.66   20.22   32.73   52.09   -9.55  -29.57
150     85    55    10     0   15.96   17.14   28.24   48.43   -3.21  -28.82
151     85    70    10     0   14.49   14.57   24.32   45.03    2.74  -27.88
152     85    85    10     0   13.30   12.54   21.12   42.06    8.08  -26.89
153     85   100    10     0   12.43   11.12   18.79   39.77   12.17  -25.98
154    100     0    10     0   18.90   26.25   44.85   58.27  -29.70  -35.18
155    100    10    10     0   17.72   23.80   41.24   55.89  -25.58  -34.79
156    100    20    10     0   16.61   21.52   37.73   53.51  -21.42  -34.25
157    100    30    10     0   15.57   19.45   34.51   51.21  -17.42  -33.70
158    100    40    10     0   14.62   17.59   31.52   48.99  -13.50  -33.08
159    100    55    10     0   13.31   15.08   27.37   45.74   -7.70  -32.01
160    100    70    10     0   12.21   13.01   23.81   42.78   -2.24  -30.84
161    100    85    10     0   11.31   11.36   20.84   40.18    2.58  -29.57
162    100   100    10     0   10.66   10.20   18.70   38.21    6.33  -28.49
163      0     0    20     0   82.43   86.39   54.91   94.48   -1.64   15.85
164      0    10    20     0   74.98   75.18   49.44   89.48    5.16   13.22
165      0    20    20     0   68.12   65.09   44.28   84.53   12.01   10.78
166      0    30    20     0   62.03   56.34   39.59   79.81   18.66    8.59
167      0    40    20     0   56.60   48.73   35.25   75.28   25.20    6.73
168      0    55    20     0   49.55   39.13   29.32   68.85   34.78    4.62
169      0    70    20     0   43.94   31.71   24.20   63.10   43.82    3.48
170      0    85    20     0   39.67   26.22   20.03   58.25   51.85    3.24
171      0   100    20     0   36.77   22.62   17.14   54.68   57.94    3.41
172     10     0    20     0   71.70   77.05   53.07   90.34   -5.39   10.69
173     10    10    20     0   65.46   67.42   47.95   85.71    1.04    8.45
174     10    20    20     0   59.62   58.57   43.09   81.06    7.62    6.26
175     10    30    20     0   54.42   50.89   38.62   76.61   14.00    4.38
176     10    40    20     0   49.72   44.12   34.47   72.31   20.30    2.73
177     10    55    20     0   43.61   35.56   28.79   66.18   29.59    0.87
178     10    70    20     0   38.71   28.89   23.92   60.68   38.31   -0.16
179     10    85    20     0   34.93   23.92   19.92   56.01   46.06   -0.40
180     10   100    20     0   32.35   20.63   17.12   52.54   52.00   -0.25
181     20     0    20     0   61.88   68.38   51.25   86.19   -9.20    5.54
182     20    10    20     0   56.64   60.03   46.44   81.85   -3.01    3.56
183     20    20    20     0   51.75   52.39   41.82   77.51    3.27    1.76
184     20    30    20     0   47.33   45.67   37.60   73.33    9.39    0.10
185     20    40    20     0   43.38   39.77   33.67   69.31   15.41   -1.28
186     20    55    20     0   38.14   32.20   28.28   63.51   24.31   -2.88
187     20    70    20     0   33.88   26.23   23.63   58.26   32.73   -3.80
188     20    85    20     0   30.55   21.73   19.79   53.74   40.25   -4.02
189     20   100    20     0   28.25   18.74   17.09   50.38   45.97   -3.90
190     30     0    20     0   53.23   60.55   49.48   82.14  -12.81    0.53
191     30    10    20     0   48.88   53.37   44.93   78.09   -6.91   -1.10
192     30    20    20     0   44.77   46.76   40.58   74.03   -0.89   -2.66
193     30    30    20     0   41.08   40.95   36.58   70.14    4.94   -3.99
194     30    40    20     0   37.71   35.77   32.86   66.35   10.70   -5.18
195     30    55    20     0   33.25   29.11   27.73   60.87   19.29   -6.52
196     30    70    20     0   29.61   23.83   23.31   55.92   27.34   -7.25
197     30    85    20     0   26.70   19.78   19.66   51.59   34.56   -7.46
198     30   100    20     0   24.69   17.08   17.08   48.35   40.12   -7.36
199     40     0    20     0   45.57   53.44   47.68   78.14  -16.30   -4.30
200     40    10    20     0   41.98   47.32   43.43   74.39  -10.67   -5.65
201     40    20    20     0   38.59   41.66   39.33   70.63   -4.95   -6.87
202     40    30    20     0   35.50   36.62   35.56   66.99    0.65   -8.00
203     40    40    20     0   32.69   32.14   32.04   63.46    6.15   -8.92
204     40    55    20     0   28.92   26.30   27.20   58.32   14.33  -10.04
205     40    70    20     0   25.78   21.61   22.99   53.62   22.06  -10.62
206     40    85    20     0   23.29   18.01   19.51   49.51   29.02  -10.74
207     40   100    20     0   21.55   15.58   17.05   46.42   34.37  -10.62
208     55     0    20     0   35.64   43.94   44.94   72.19  -21.28  -11.29
209     55    10    20     0   33.04   39.21   41.13   68.90  -16.08  -12.21
210     55    20    20     0   30.54   34.76   37.40   65.57  -10.76  -13.02
211     55    30    20     0   28.23   30.77   33.96   62.31   -5.54  -13.77
212     55    40    20     0   26.12   27.19   30.79   59.15   -0.41  -14.42
213     55    55    20     0   23.26   22.50   26.34   54.55    7.17  -15.06
214     55    70    20     0   20.87   18.67   22.51   50.30   14.42  -15.41
215     55    85    20     0   18.92   15.69   19.29   46.56   20.86  -15.35
216     55   100    20     0   17.54   13.65   17.01   43.72   25.86  -15.20
217     70     0    20     0   27.84   36.16   42.30   66.64  -25.76  -17.60
218     70    10    20     0   25.96   32.51   38.89   63.76  -20.93  -18.13
219     70    20    20     0   24.13   29.03   35.54   60.80  -15.97  -18.64
220     70    30    20     0   22.43   25.88   32.42   57.93  -11.12  -19.04
221     70    40    20     0   20.86   23.05   29.50   55.12   -6.38  -19.34
222     70    55    20     0   18.75   19.31   25.50   51.05    0.68  -19.63
223     70    70    20     0   16.93   16.21   21.99   47.25    7.36  -19.67
224     70    85    20     0   15.44   13.78   19.05   43.92   13.28  -19.39
225     70   100    20     0   14.40   12.11   16.97   41.39   17.91  -19.11
226     85     0    20     0   21.93   30.02   39.89   61.67  -29.59  -23.07
227     85    10    20     0   20.54   27.14   36.79   59.10  -25.10  -23.31
228     85    20    20     0   19.19   24.38   33.76   56.47  -20.46  -23.55
229     85    30    20     0   17.96   21.93   30.94   53.95  -15.98  -23.63
230     85    40    20     0   16.81   19.68   28.32   51.48  -11.56  -23.70
231     85    55    20     0   15.22   16.69   24.65   47.86   -5.06  -23.60
232     85    70    20     0   13.89   14.23   21.48   44.56    1.10  -23.31
233     85    85    20     0   12.80   12.28   18.82   41.65    6.56  -22.82
234     85   100    20     0   11.99   10.90   16.88   39.41   10.74  -22.30
235    100     0    20     0   17.70   25.45   37.92   57.51  -32.70  -27.61
236    100    10    20     0   16.63   23.08   35.01   55.16  -28.41  -27.62
237    100    20    20     0   15.62   20.87   32.25   52.81  -24.03  -27.60
238    100    30    20     0   14.71   18.91   29.69   50.58  -19.84  -27.47
239    100    40    20     0   13.84   17.09   27.28   48.38  -15.71  -27.31
240    100    55    20     0   12.67   14.71   23.96   45.24   -9.73  -26.88
241    100    70    20     0   11.67   12.71   21.04   42.32   -4.07  -26.29
242    100    85    20     0   10.86   11.13   18.59   39.80    0.93  -25.50
243    100   100    20     0   10.28   10.02   16.82   37.88    4.82  -24.81
244      0     0    30     0   80.23   84.51   45.76   93.67   -2.43   24.75
245      0    10    30     0   73.07   73.58   41.45   88.72    4.45   21.56
246      0    20    30     0   66.43   63.70   37.36   83.81   11.38   18.50
247      0    30    30     0   60.53   55.15   33.62   79.13   18.09   15.73
248      0    40    30     0   55.31   47.75   30.18   74.67   24.63   13.28
249      0    55    30     0   48.50   38.38   25.38   68.30   34.29   10.32
250      0    70    30     0   43.13   31.18   21.22   62.66   43.33    8.42
251      0    85    30     0   39.06   25.90   17.81   57.94   51.27    7.49
252      0   100    30     0   36.33   22.43   15.45   54.48   57.34    7.08
253     10     0    30     0   69.61   75.32   44.30   89.54   -6.37   19.40
254     10    10    30     0   63.61   65.90   40.24   84.94    0.16   16.59
255     10    20    30     0   57.97   57.25   36.37   80.32    6.83   13.84
256     10    30    30     0   52.97   49.76   32.84   75.92   13.29   11.35
257     10    40    30     0   48.46   43.17   29.53   71.67   19.63    9.16
258     10    55    30     0   42.59   34.84   24.96   65.62   28.95    6.47
259     10    70    30     0   37.90   28.39   21.00   60.24   37.66    4.69
260     10    85    30     0   34.29   23.58   17.72   55.66   45.37    3.76
261     10   100    30     0   31.85   20.40   15.42   52.28   51.30    3.37
262     20     0    30     0   59.88   66.72   42.82   85.36  -10.32   14.03
263     20    10    30     0   54.86   58.58   38.99   81.06   -4.05   11.55
264     20    20    30     0   50.18   51.14   35.36   76.77    2.32    9.15
265     20    30    30     0   45.95   44.60   31.99   72.62    8.53    6.95
266     20    40    30     0   42.13   38.84   28.85   68.63   14.60    5.01
267     20    55    30     0   37.14   31.51   24.52   62.93   23.56    2.61
268     20    70    30     0   33.07   25.73   20.73   57.78   31.98    1.00
269     20    85    30     0   29.93   21.40   17.61   53.38   39.47    0.10
270     20   100    30     0   27.76   18.52   15.40   50.12   45.17   -0.31
271     30     0    30     0   51.34   59.00   41.35   81.29  -14.10    8.86
272     30    10    30     0   47.17   52.01   37.78   77.29   -8.12    6.68
273     30    20    30     0   43.25   45.56   34.32   73.26   -2.01    4.60
274     30    30    30     0   39.74   39.93   31.16   69.42    3.91    2.70
275     30    40    30     0   36.53   34.91   28.19   65.68    9.74    0.99
276     30    55    30     0   32.28   28.44   24.07   60.29   18.36   -1.12
277     30    70    30     0   28.81   23.33   20.47   55.41   26.48   -2.56
278     30    85    30     0   26.08   19.45   17.50   51.21   33.67   -3.40
279     30   100    30     0   24.17   16.82   15.37   48.04   39.23   -3.82
280     40     0    30     0   43.76   51.97   39.88   77.26  -17.75    3.83
281     40    10    30     0   40.37   46.05   36.53   73.58  -12.04    1.99
282     40    20    30     0   37.16   40.55   33.30   69.86   -6.21    0.23
283     40    30    30     0   34.24   35.67   30.32   66.27   -0.53   -1.42
284     40    40    30     0   31.59   31.36   27.54   62.81    5.03   -2.87
285     40    55    30     0   27.99   25.67   23.60   57.73   13.29   -4.68
286     40    70    30     0   25.05   21.16   20.21   53.13   21.10   -5.96
287     40    85    30     0   22.69   17.69   17.36   49.11   28.03   -6.70
288     40   100    30     0   21.03   15.33   15.34   46.08   33.38   -7.12
289     55     0    30     0   34.06   42.69   37.67   71.35  -23.03   -3.42
290     55    10    30     0   31.60   38.10   34.66   68.10  -17.74   -4.80
291     55    20    30     0   29.26   33.80   31.73   64.81  -12.29   -6.13
292     55    30    30     0   27.09   29.94   29.01   61.60   -6.99   -7.39
293     55    40    30     0   25.12   26.49   26.48   58.50   -1.78   -8.49
294     55    55    30     0   22.42   21.92   22.90   53.95    5.97   -9.87
295     55    70    30     0   20.16   18.24   19.78   49.78   13.21  -10.82
296     55    85    30     0   18.34   15.36   17.17   46.12   19.75  -11.41
297     55   100    30     0   17.04   13.40   15.29   43.36   24.74  -11.69
298     70     0    30     0   26.45   35.10   35.54   65.82  -27.81   -9.97
