workbench/prefs/Presets/Colortables/ICC/FOGRA30L.ti3
CTI3

KEYWORD "DEVICE_CLASS"
DEVICE_CLASS "OUTPUT"
KEYWORD "COLOR_REP"
COLOR_REP "CMYK_LAB"

ORIGINATOR       "FOGRA, www.fogra.org"
DESCRIPTOR       "FOGRA30"
CREATED          "September 2003"
INSTRUMENTATION  "GRETAGMACBETH SpectroChart and SpectroScan, D50, 2 degree, geometry 45/0, no polarisation filter, white backing"
MEASUREMENT_SOURCE "GAS-FILLED TUNGSTEN"
PRINT_CONDITIONS "Offset printing according to ISO/DIS 12647-2:2004, OFCOM,  paper type 5 = slightly yellowish, uncoated, 120 g/m2, screen ruling 60 cm-1, positive-acting plates, see readme"
NUMBER_OF_FIELDS 11
BEGIN_DATA_FORMAT
SAMPLE_ID CMYK_C CMYK_M CMYK_Y CMYK_K XYZ_X XYZ_Y XYZ_Z LAB_L LAB_A LAB_B
END_DATA_FORMAT
NUMBER_OF_SETS 1485
BEGIN_DATA
1        0     0     0     0   86.21   89.84   69.76   95.93   -0.77    3.85
2        0    10     0     0   78.59   78.56   62.24   91.03    5.71    2.46
3        0    20     0     0   71.25   67.95   54.96   85.98   12.46    1.15
4        0    30     0     0   64.47   58.42   48.09   80.97   19.23    0.12
5        0    40     0     0   58.44   50.19   41.85   76.19   25.80   -0.57
6        0    55     0     0   50.34   39.49   33.02   69.11   35.77   -0.66
7        0    70     0     0   43.83   31.26   25.54   62.73   45.11    0.43
8        0    85     0     0   39.01   25.42   19.84   57.48   53.05    2.31
9        0   100     0     0   35.25   21.09   15.51   53.04   59.94    4.46
10      10     0     0     0   75.71   80.81   68.07   92.05   -4.45   -1.30
11      10    10     0     0   69.18   70.87   60.76   87.42    1.83   -2.31
12      10    20     0     0   62.82   61.48   53.73   82.63    8.31   -3.31
13      10    30     0     0   56.99   53.08   47.12   77.92   14.78   -4.01
14      10    40     0     0   51.73   45.72   41.09   73.36   21.10   -4.47
15      10    55     0     0   44.64   36.13   32.56   66.62   30.68   -4.26
16      10    70     0     0   38.87   28.67   25.31   60.49   39.66   -3.01
17      10    85     0     0   34.55   23.32   19.76   55.40   47.35   -1.10
18      10   100     0     0   31.16   19.33   15.53   51.07   54.02    1.02
19      20     0     0     0   65.82   72.10   66.23   88.02   -8.09   -6.55
20      20    10     0     0   60.25   63.40   59.20   83.65   -2.08   -7.25
21      20    20     0     0   54.88   55.23   52.44   79.18    4.12   -7.88
22      20    30     0     0   49.88   47.84   46.08   74.73   10.32   -8.30
23      20    40     0     0   45.39   41.39   40.30   70.45   16.33   -8.46
24      20    55     0     0   39.25   32.86   32.07   64.05   25.52   -7.95
25      20    70     0     0   34.19   26.15   25.05   58.18   34.15   -6.53
26      20    85     0     0   30.35   21.29   19.66   53.27   41.54   -4.57
27      20   100     0     0   27.33   17.65   15.54   49.07   47.97   -2.46
28      30     0     0     0   56.87   63.97   64.26   83.95  -11.51  -11.69
29      30    10     0     0   52.23   56.53   57.56   79.91   -5.82  -12.03
30      30    20     0     0   47.68   49.41   51.09   75.71    0.10  -12.36
31      30    30     0     0   43.48   43.02   45.01   71.57    5.97  -12.45
32      30    40     0     0   39.64   37.34   39.45   67.53   11.72  -12.37
33      30    55     0     0   34.36   29.81   31.54   61.49   20.48  -11.55
34      30    70     0     0   29.97   23.82   24.77   55.91   28.72   -9.95
35      30    85     0     0   26.58   19.43   19.56   51.19   35.82   -7.94
36      30   100     0     0   23.90   16.11   15.55   47.12   42.00   -5.83
37      40     0     0     0   49.02   56.64   62.25   79.98  -14.64  -16.61
38      40    10     0     0   45.13   50.22   55.85   76.20   -9.22  -16.65
39      40    20     0     0   41.34   44.13   49.69   72.31   -3.63  -16.65
40      40    30     0     0   37.80   38.57   43.88   68.44    1.96  -16.46
41      40    40     0     0   34.57   33.65   38.56   64.69    7.41  -16.11
42      40    55     0     0   30.06   27.03   30.97   59.00   15.75  -14.98
43      40    70     0     0   26.25   21.70   24.47   53.70   23.61  -13.20
44      40    85     0     0   23.30   17.76   19.43   49.20   30.38  -11.10
45      40   100     0     0   20.94   14.76   15.55   45.31   36.29   -8.97
46      55     0     0     0   38.67   46.56   58.90   73.90  -18.79  -23.75
47      55    10     0     0   35.78   41.56   53.02   70.57  -13.83  -23.34
48      55    20     0     0   32.96   36.81   47.33   67.13   -8.73  -22.86
49      55    30     0     0   30.29   32.42   41.96   63.69   -3.61  -22.25
50      55    40     0     0   27.84   28.51   37.04   60.35    1.38  -21.52
51      55    55     0     0   24.37   23.18   30.00   55.25    9.01  -19.91
52      55    70     0     0   21.39   18.80   23.93   50.45   16.25  -17.82
53      55    85     0     0   19.04   15.52   19.20   46.33   22.49  -15.56
54      55   100     0     0   17.15   12.99   15.54   42.75   27.93  -13.34
55      70     0     0     0   30.41   38.04   55.34   68.05  -21.96  -30.17
56      70    10     0     0   28.30   34.23   49.99   65.15  -17.48  -29.33
57      70    20     0     0   26.22   30.56   44.79   62.13  -12.85  -28.45
58      70    30     0     0   24.25   27.17   39.89   59.13   -8.23  -27.45
59      70    40     0     0   22.41   24.10   35.37   56.18   -3.71  -26.37
60      70    55     0     0   19.81   19.88   28.91   51.70    3.20  -24.28
61      70    70     0     0   17.53   16.37   23.32   47.46    9.74  -21.84
62      70    85     0     0   15.72   13.70   18.93   43.79   15.39  -19.36
63      70   100     0     0   14.24   11.61   15.51   40.60   20.33  -16.99
64      85     0     0     0   24.29   31.41   51.96   62.85  -24.10  -35.49
65      85    10     0     0   22.74   28.49   47.09   60.33  -20.07  -34.31
66      85    20     0     0   21.19   25.63   42.35   57.69  -15.88  -33.10
67      85    30     0     0   19.73   23.01   37.88   55.08  -11.72  -31.75
68      85    40     0     0   18.36   20.59   33.74   52.50   -7.62  -30.36
69      85    55     0     0   16.40   17.26   27.83   48.59   -1.40  -27.86
70      85    70     0     0   14.68   14.47   22.69   44.90    4.47  -25.07
71      85    85     0     0   13.29   12.32   18.65   41.72    9.53  -22.33
72      85   100     0     0   12.15   10.62   15.46   38.93   13.95  -19.76
73     100     0     0     0   19.49   26.00   48.75   58.04  -25.68  -40.19
74     100    10     0     0   18.35   23.75   44.32   55.83  -22.05  -38.73
75     100    20     0     0   17.22   21.57   40.01   53.57  -18.29  -37.20
76     100    30     0     0   16.14   19.53   35.93   51.30  -14.54  -35.57
77     100    40     0     0   15.13   17.67   32.17   49.10  -10.90  -33.89
78     100    55     0     0   13.68   15.08   26.77   45.74   -5.34  -30.99
79     100    70     0     0   12.40   12.88   22.06   42.58   -0.11  -27.86
80     100    85     0     0   11.37   11.18   18.35   39.88    4.37  -24.85
81     100   100     0     0   10.53    9.82   15.41   37.53    8.26  -22.06
82       0     0    10     0   84.37   88.46   59.93   95.36   -1.74   12.20
83       0    10    10     0   76.90   77.23   53.69   90.43    4.95   10.17
84       0    20    10     0   69.75   66.78   47.64   85.39   11.80    8.26
85       0    30    10     0   63.16   57.42   41.98   80.41   18.67    6.56
86       0    40    10     0   57.31   49.34   36.75   75.66   25.29    5.29
87       0    55    10     0   49.46   38.88   29.36   68.67   35.32    4.24
88       0    70    10     0   43.19   30.88   23.05   62.41   44.62    4.43
89       0    85    10     0   38.56   25.22   18.18   57.29   52.49    5.54
90       0   100    10     0   34.96   21.01   14.43   52.96   59.29    7.05
91      10     0    10     0   73.80   79.33   58.39   91.38   -5.49    6.90
92      10    10    10     0   67.48   69.56   52.42   86.78    0.90    5.25
93      10    20    10     0   61.32   60.33   46.59   82.02    7.49    3.67
94      10    30    10     0   55.69   52.11   41.16   77.34   14.05    2.30
95      10    40    10     0   50.60   44.89   36.11   72.82   20.44    1.29
96      10    55    10     0   43.77   35.54   28.97   66.17   30.08    0.56
97      10    70    10     0   38.24   28.30   22.86   60.16   39.05    0.92
98      10    85    10     0   34.09   23.12   18.12   55.19   46.69    2.07
99      10   100    10     0   30.85   19.25   14.45   50.97   53.30    3.57
100     20     0    10     0   63.94   70.63   56.80   87.31   -9.27    1.51
101     20    10    10     0   58.58   62.12   51.08   82.98   -3.15    0.18
102     20    20    10     0   53.41   54.12   45.49   78.53    3.15   -1.02
103     20    30    10     0   48.61   46.91   40.27   74.13    9.44   -2.08
104     20    40    10     0   44.29   40.61   35.43   69.90   15.52   -2.80
105     20    55    10     0   38.39   32.30   28.55   63.59   24.78   -3.20
106     20    70    10     0   33.56   25.79   22.64   57.84   33.43   -2.66
107     20    85    10     0   29.90   21.09   18.04   53.05   40.79   -1.44
108     20   100    10     0   27.01   17.56   14.46   48.95   47.18    0.05
109     30     0    10     0   55.03   62.56   55.13   83.21  -12.87   -3.81
110     30    10    10     0   50.61   55.30   49.69   79.21   -7.07   -4.75
111     30    20    10     0   46.25   48.35   44.34   75.05   -1.05   -5.64
112     30    30    10     0   42.25   42.13   39.36   70.96    4.92   -6.36
113     30    40    10     0   38.56   36.60   34.71   66.97   10.75   -6.81
114     30    55    10     0   33.53   29.28   28.11   61.03   19.60   -6.88
115     30    70    10     0   29.35   23.48   22.41   55.56   27.88   -6.14
116     30    85    10     0   26.13   19.23   17.95   50.96   34.97   -4.86
117     30   100    10     0   23.58   16.01   14.47   46.99   41.13   -3.36
118     40     0    10     0   47.26   55.29   53.40   79.21  -16.16   -8.86
119     40    10    10     0   43.58   49.05   48.23   75.48  -10.63   -9.50
120     40    20    10     0   39.97   43.13   43.15   71.64   -4.93  -10.04
121     40    30    10     0   36.62   37.74   38.39   67.83    0.77  -10.47
122     40    40    10     0   33.54   32.95   33.95   64.12    6.29  -10.63
123     40    55    10     0   29.26   26.53   27.63   58.54   14.74  -10.38
124     40    70    10     0   25.66   21.37   22.14   53.35   22.66   -9.44
125     40    85    10     0   22.86   17.57   17.85   48.96   29.45   -8.06
126     40   100    10     0   20.62   14.66   14.48   45.16   35.36   -6.53
127     55     0    10     0   37.07   45.36   50.56   73.13  -20.58  -16.22
128     55    10    10     0   34.37   40.53   45.81   69.85  -15.50  -16.38
129     55    20    10     0   31.72   35.92   41.14   66.46  -10.28  -16.43
130     55    30    10     0   29.21   31.68   36.75   63.08   -5.04  -16.41
131     55    40    10     0   26.90   27.89   32.66   59.79    0.04  -16.18
132     55    55    10     0   23.64   22.73   26.79   54.79    7.81  -15.42
133     55    70    10     0   20.84   18.50   21.68   50.10   15.15  -14.14
134     55    85    10     0   18.63   15.33   17.65   46.08   21.43  -12.57
135     55   100    10     0   16.83   12.89   14.47   42.59   26.91  -10.93
136     70     0    10     0   28.99   37.02   47.54   67.29  -24.04  -22.83
137     70    10    10     0   27.05   33.36   43.24   64.45  -19.43  -22.55
138     70    20    10     0   25.12   29.80   38.97   61.48  -14.66  -22.18
139     70    30    10     0   23.29   26.53   34.98   58.54   -9.89  -21.74
140     70    40    10     0   21.58   23.56   31.22   55.65   -5.25  -21.15
141     70    55    10     0   19.15   19.49   25.85   51.26    1.82  -19.88
142     70    70    10     0   17.03   16.11   21.14   47.12    8.50  -18.22
143     70    85    10     0   15.33   13.52   17.40   43.54   14.24  -16.41
144     70   100    10     0   13.94   11.51   14.44   40.42   19.24  -14.60
145     85     0    10     0   23.06   30.57   44.69   62.14  -26.45  -28.31
146     85    10    10     0   21.65   27.76   40.78   59.67  -22.26  -27.68
147     85    20    10     0   20.22   25.00   36.89   57.08  -17.91  -26.95
148     85    30    10     0   18.89   22.47   33.26   54.53  -13.58  -26.16
149     85    40    10     0   17.62   20.14   29.82   52.00   -9.35  -25.24
150     85    55    10     0   15.81   16.93   24.91   48.18   -2.92  -23.53
151     85    70    10     0   14.23   14.24   20.59   44.57    3.11  -21.50
152     85    85    10     0   12.94   12.16   17.15   41.46    8.29  -19.40
153     85   100    10     0   11.88   10.51   14.39   38.74   12.81  -17.37
154    100     0    10     0   18.42   25.31   41.97   57.37  -28.28  -33.15
155    100    10    10     0   17.40   23.15   38.41   55.22  -24.45  -32.22
156    100    20    10     0   16.38   21.05   34.89   53.00  -20.52  -31.17
157    100    30    10     0   15.40   19.09   31.58   50.79  -16.58  -30.08
158    100    40    10     0   14.48   17.30   28.46   48.63  -12.79  -28.85
159    100    55    10     0   13.16   14.79   23.98   45.35   -6.99  -26.72
160    100    70    10     0   11.99   12.67   20.04   42.27   -1.55  -24.33
161    100    85    10     0   11.05   11.03   16.88   39.63    3.08  -21.94
162    100   100    10     0   10.27    9.72   14.34   37.34    7.09  -19.67
163      0     0    20     0   82.47   86.92   50.65   94.70   -2.56   20.88
164      0    10    20     0   75.19   75.85   45.64   89.79    4.24   18.21
165      0    20    20     0   68.22   65.54   40.74   84.76   11.22   15.64
166      0    30    20     0   61.82   56.35   36.14   79.81   18.16   13.29
167      0    40    20     0   56.14   48.44   31.89   75.10   24.84   11.38
168      0    55    20     0   48.56   38.23   25.84   68.19   34.90    9.34
169      0    70    20     0   42.52   30.46   20.61   62.05   44.17    8.61
170      0    85    20     0   38.09   24.98   16.52   57.06   51.96    8.95
171      0   100    20     0   34.65   20.93   13.35   52.87   58.65    9.76
172     10     0    20     0   71.89   77.79   49.35   90.68   -6.46   15.41
173     10    10    20     0   65.77   68.20   44.58   86.10    0.03   13.14
174     10    20    20     0   59.79   59.12   39.86   81.36    6.74   10.91
175     10    30    20     0   54.36   51.07   35.46   76.72   13.38    8.92
176     10    40    20     0   49.44   44.02   31.36   72.24   19.82    7.27
177     10    55    20     0   42.87   34.92   25.52   65.68   29.52    5.57
178     10    70    20     0   37.57   27.90   20.45   59.80   38.47    5.04
179     10    85    20     0   33.61   22.88   16.47   54.95   46.05    5.43
180     10   100    20     0   30.52   19.15   13.37   50.86   52.57    6.24
181     20     0    20     0   62.03   69.10   48.00   86.55  -10.40    9.85
182     20    10    20     0   56.88   60.77   43.43   82.26   -4.17    7.91
183     20    20    20     0   51.91   52.96   38.95   77.85    2.22    6.08
184     20    30    20     0   47.30   45.91   34.72   73.49    8.60    4.40
185     20    40    20     0   43.15   39.77   30.79   69.31   14.75    3.08
186     20    55    20     0   37.51   31.70   25.17   63.10   24.07    1.72
187     20    70    20     0   32.89   25.40   20.27   57.46   32.72    1.39
188     20    85    20     0   29.41   20.86   16.41   52.79   40.04    1.87
189     20   100    20     0   26.67   17.45   13.39   48.82   46.37    2.67
190     30     0    20     0   53.18   61.08   46.60   82.42  -14.17    4.35
191     30    10    20     0   48.96   54.00   42.27   78.46   -8.27    2.83
192     30    20    20     0   44.80   47.24   37.99   74.34   -2.15    1.32
193     30    30    20     0   40.98   41.19   33.97   70.31    3.91    0.01
194     30    40    20     0   37.47   35.80   30.19   66.37    9.82   -1.05
195     30    55    20     0   32.68   28.72   24.81   60.53   18.74   -2.04
196     30    70    20     0   28.71   23.11   20.08   55.18   27.05   -2.16
197     30    85    20     0   25.65   19.00   16.34   50.69   34.13   -1.61
198     30   100    20     0   23.23   15.90   13.40   46.84   40.25   -0.77
199     40     0    20     0   45.49   53.89   45.17   78.40  -17.64   -0.86
200     40    10    20     0   42.00   47.83   41.05   74.72  -12.00   -2.07
201     40    20    20     0   38.59   42.08   36.99   70.92   -6.19   -3.21
202     40    30    20     0   35.40   36.84   33.15   67.16   -0.40   -4.22
203     40    40    20     0   32.49   32.21   29.56   63.51    5.21   -4.97
204     40    55    20     0   28.44   26.00   24.40   58.03   13.74   -5.62
205     40    70    20     0   25.04   21.01   19.86   52.97   21.72   -5.52
206     40    85    20     0   22.39   17.34   16.25   48.69   28.51   -4.85
207     40   100    20     0   20.28   14.54   13.41   45.00   34.41   -3.97
208     55     0    20     0   35.47   44.11   42.80   72.30  -22.34   -8.46
209     55    10    20     0   32.94   39.45   39.03   69.07  -17.14   -9.17
210     55    20    20     0   30.46   34.99   35.31   65.74  -11.81   -9.79
211     55    30    20     0   28.11   30.89   31.78   62.42   -6.45  -10.33
212     55    40    20     0   25.95   27.23   28.48   59.19   -1.28  -10.66
213     55    55    20     0   22.90   22.25   23.70   54.30    6.62  -10.77
214     55    70    20     0   20.26   18.18   19.47   49.71   14.03  -10.30
215     55    85    20     0   18.19   15.12   16.08   45.80   20.37   -9.42
216     55   100    20     0   16.50   12.77   13.40   42.41   25.86   -8.42
217     70     0    20     0   27.59   35.96   40.30   66.49  -26.09  -15.29
218     70    10    20     0   25.80   32.43   36.89   63.70  -21.34  -15.54
219     70    20    20     0   24.01   29.01   33.51   60.79  -16.43  -15.72
220     70    30    20     0   22.32   25.86   30.30   57.90  -11.54  -15.82
221     70    40    20     0   20.73   23.00   27.27   55.07   -6.78  -15.77
222     70    55    20     0   18.48   19.08   22.91   50.78    0.45  -15.34
223     70    70    20     0   16.51   15.82   19.01   46.74    7.24  -14.46
224     70    85    20     0   14.92   13.33   15.87   43.25   13.06  -13.31
225     70   100    20     0   13.63   11.39   13.37   40.22   18.12  -12.10
226     85     0    20     0   21.84   29.68   37.92   61.38  -28.75  -20.95
227     85    10    20     0   20.56   26.98   34.84   58.96  -24.40  -20.81
228     85    20    20     0   19.26   24.34   31.76   56.42  -19.89  -20.63
229     85    30    20     0   18.04   21.90   28.85   53.92  -15.42  -20.35
230     85    40    20     0   16.88   19.66   26.09   51.45  -11.06  -19.96
231     85    55    20     0   15.22   16.58   22.10   47.72   -4.44  -19.06
232     85    70    20     0   13.76   13.98   18.54   44.21    1.75  -17.78
233     85    85    20     0   12.57   11.98   15.65   41.18    7.05  -16.32
234     85   100    20     0   11.59   10.39   13.32   38.54   11.65  -14.88
235    100     0    20     0   17.37   24.59   35.67   56.67  -30.83  -25.94
236    100    10    20     0   16.46   22.52   32.87   54.57  -26.83  -25.51
237    100    20    20     0   15.54   20.50   30.09   52.40  -22.72  -24.97
238    100    30    20     0   14.66   18.61   27.44   50.23  -18.62  -24.38
239    100    40    20     0   13.83   16.90   24.94   48.13  -14.66  -23.67
240    100    55    20     0   12.64   14.49   21.31   44.93   -8.63  -22.32
241    100    70    20     0   11.58   12.45   18.05   41.93   -3.01  -20.65
242    100    85    20     0   10.71   10.87   15.41   39.36    1.76  -18.88
243    100   100    20     0   10.00    9.61   13.27   37.13    5.89  -17.17
244      0     0    30     0   80.63   85.33   42.46   94.02   -3.18   29.42
245      0    10    30     0   73.54   74.43   38.47   89.12    3.71   26.14
246      0    20    30     0   66.74   64.29   34.59   84.11   10.77   22.91
247      0    30    30     0   60.51   55.26   30.91   79.19   17.77   19.93
248      0    40    30     0   55.00   47.51   27.51   74.52   24.50   17.37
249      0    55    30     0   47.65   37.55   22.60   67.69   34.58   14.39
250      0    70    30     0   41.84   30.01   18.33   61.66   43.79   12.78
251      0    85    30     0   37.60   24.73   14.96   56.81   51.48   12.32
252      0   100    30     0   34.33   20.81   12.30   52.75   58.05   12.46
253     10     0    30     0   70.06   76.22   41.39   89.96   -7.24   23.76
254     10    10    30     0   64.12   66.80   37.60   85.40   -0.67   20.91
255     10    20    30     0   58.33   57.90   33.88   80.68    6.13   18.03
256     10    30    30     0   53.06   50.02   30.36   76.08   12.84   15.43
257     10    40    30     0   48.31   43.13   27.08   71.64   19.33   13.14
258     10    55    30     0   41.97   34.26   22.35   65.17   29.05   10.54
259     10    70    30     0   36.89   27.46   18.21   59.40   37.98    9.13
260     10    85    30     0   33.12   22.63   14.93   54.69   45.47    8.75
261     10   100    30     0   30.18   19.03   12.33   50.72   51.89    8.89
262     20     0    30     0   60.22   67.57   40.29   85.79  -11.35   18.00
263     20    10    30     0   55.26   59.42   36.67   81.52   -5.04   15.50
264     20    20    30     0   50.46   51.78   33.12   77.15    1.43   13.05
265     20    30    30     0   46.02   44.90   29.76   72.82    7.88   10.77
266     20    40    30     0   42.04   38.92   26.62   68.69   14.09    8.83
267     20    55    30     0   36.63   31.08   22.07   62.57   23.45    6.60
268     20    70    30     0   32.22   24.98   18.06   57.05   32.08    5.41
269     20    85    30     0   28.91   20.61   14.88   52.51   39.35    5.12
270     20   100    30     0   26.31   17.32   12.35   48.66   45.60    5.28
271     30     0    30     0   51.43   59.60   39.14   81.62  -15.29   12.32
272     30    10    30     0   47.39   52.70   35.71   77.70   -9.30   10.25
273     30    20    30     0   43.40   46.11   32.34   73.62   -3.10    8.14
274     30    30    30     0   39.74   40.22   29.14   69.63    3.04    6.26
275     30    40    30     0   36.39   34.99   26.13   65.74    9.00    4.60
276     30    55    30     0   31.83   28.12   21.77   60.00   17.98    2.74
277     30    70    30     0   28.05   22.70   17.91   54.76   26.29    1.80
278     30    85    30     0   25.17   18.75   14.83   50.40   33.33    1.60
279     30   100    30     0   22.88   15.77   12.37   46.67   39.41    1.79
280     40     0    30     0   43.81   52.49   37.97   77.57  -18.94    6.91
281     40    10    30     0   40.49   46.60   34.72   73.93  -13.22    5.17
282     40    20    30     0   37.25   41.01   31.52   70.18   -7.32    3.46
283     40    30    30     0   34.22   35.93   28.47   66.47   -1.45    1.89
284     40    40    30     0   31.46   31.44   25.62   62.88    4.23    0.56
285     40    55    30     0   27.63   25.43   21.44   57.50   12.83   -0.92
286     40    70    30     0   24.40   20.63   17.73   52.54   20.83   -1.63
287     40    85    30     0   21.92   17.10   14.76   48.39   27.62   -1.70
288     40   100    30     0   19.92   14.40   12.38   44.81   33.49   -1.45
289     55     0    30     0   33.96   42.87   36.03   71.47  -23.91   -0.94
290     55    10    30     0   31.58   38.35   33.06   68.28  -18.62   -2.15
291     55    20    30     0   29.25   34.05   30.14   65.00  -13.17   -3.33
292     55    30    30     0   27.05   30.09   27.34   61.73   -7.73   -4.40
293     55    40    30     0   25.02   26.56   24.72   58.56   -2.47   -5.28
294     55    55    30     0   22.15   21.75   20.86   53.76    5.52   -6.19
295     55    70    30     0   19.68   17.83   17.41   49.29   12.99   -6.50
296     55    85    30     0   17.74   14.90   14.62   45.49   19.35   -6.33
297     55   100    30     0   16.17   12.63   12.38   42.20   24.85   -5.93
298     70     0    30     0   26.26   34.90   33.98   65.67  -27.91   -7.99
