workbench/prefs/Presets/Colortables/ICC/TR002.ti3
CTI3

KEYWORD "DEVICE_CLASS"
DEVICE_CLASS "OUTPUT"
KEYWORD "COLOR_REP"
COLOR_REP "CMYK_LAB"

ORIGINATOR  "ANSI CGATS and SNAP Committee"
FILE_DESCRIPTOR "Color Characterization Data for Coldset Printing on Newsprint"
CREATED  "December 2006"
# This file is provided in support of ANSI CGATS/SNAP TR 002-2007 which is titled
# ANSI CGATS/SNAP TR 002-2007 Graphic Technology — Color Characterization Data
# for Coldset Printing on Newsprint.
# These data represent the average of 102 sets of measurements as described in
# ANSI CGATS/SNAP TR 002-2007 noted above.
TARGET_TYPE "ANSI IT8.7/3"
COPYRIGHT "Copyright 2007 by NPES The Association for Suppliers of Printing, Publishing and Converting Technologies."
# Profiles, or other derivative work, based on these data may be distributed with no further permissions from CGATS.
# However, this Technical Report must be identified as the source of the characterization data
INSTRUMENTATION "See ANSI/CGATS TR002"
MEASUREMENT_SOURCE "See ANSI CGATS/SNAP TR 002-2007"
PRINT_CONDITIONS "See ANSI CGATS/SNAP TR 002-2007"
ILLUMINANT "D50"           
MEASUREMENT_GEOMETRY "0:45"
OBSERVER "CIE 2 degree"
SAMPLE_BACKING "Black"

NUMBER_OF_FIELDS   11
BEGIN_DATA_FORMAT
SAMPLE_ID CMYK_C CMYK_M CMYK_Y CMYK_K XYZ_X XYZ_Y XYZ_Z LAB_L LAB_A LAB_B
END_DATA_FORMAT

NUMBER_OF_SETS     928
BEGIN_DATA
1 100 0 0 0 18.71 24.5 35.94 56.58 -23.4 -26.45 
2 0 100 0 0 30.38 20.76 17.61 52.69 44.14 -1.09 
3 0 0 100 0 47.52 50.81 11.9 76.57 -4.05 54.72 
4 100 100 0 0 11.52 11.1 17.18 39.74 6.02 -22.44 
5 100 0 100 0 13.84 20.9 11.26 52.84 -34.93 15.74 
6 0 100 100 0 27.51 19.19 8.29 50.91 40.74 22.38 
7 100 100 100 0 10.03 10.49 8.78 38.7 -0.67 -0.46
8 70 70 0 0 15.45 14.62 20.28 45.1 8.19 -19.92
9 70 0 70 0 18.49 25.68 14.73 57.73 -29.49 14.53
10 0 70 70 0 30.52 23.05 10.82 55.12 34.21 21.02
11 40 40 0 0 23.39 22.71 26.64 54.77 6.78 -15.17
12 0 40 40 0 36.72 31.43 17.16 62.87 22.47 17.5
13 40 40 40 0 21.43 21.67 16.62 53.67 2.54 2.88
14 40 0 40 0 27.62 34.29 21.73 65.19 -20.33 11.78
15 20 20 0 0 33.9 33.98 33.67 64.95 3.97 -8.77
16 20 0 20 0 37.91 43.31 29.9 71.77 -12.02 8.74
17 0 20 20 0 43.45 40.85 25.63 70.07 12.33 12.95
18 100 0 0 100 6.85 7.61 7.05 33.15 -4.76 -3.33
19 0 100 0 100 8.6 7.5 5.81 32.93 12.55 1.77
20 0 0 100 100 10.19 10.63 5.37 38.95 -0.41 14.3
21 100 100 0 100 6.49 6.43 6.31 30.48 3 -4.77
22 100 0 100 100 7 8.29 5.7 34.58 -9.47 5.13
23 0 100 100 100 9.29 8.09 5.08 34.17 13 7.55
24 100 100 100 100 6.4 6.59 5.38 30.86 0.49 0.29
25 0 0 0 100 9.24 9.37 6.7 36.69 1.68 4.25
26 0 0 0 0 54.77 56.8 43.96 80.07 -0.01 3.51
27 90 0 0 0 19.55 25.38 36.17 57.44 -22.85 -25.3
28 80 0 0 0 20.93 26.78 36.59 58.77 -21.78 -23.6
29 70 0 0 0 22.72 28.62 37.51 60.44 -20.67 -21.99
30 60 0 0 0 25.09 30.98 38.33 62.49 -19.09 -19.57
31 50 0 0 0 28.21 34 39.22 64.96 -17.06 -16.49
32 40 0 0 0 32.08 37.61 40.23 67.73 -14.44 -13.05
33 30 0 0 0 36.4 41.49 41.13 70.52 -11.55 -9.41
34 25 0 0 0 38.71 43.51 41.61 71.9 -10.03 -7.63
35 20 0 0 0 40.79 45.32 41.92 73.1 -8.72 -5.96
36 15 0 0 0 43.34 47.51 42.2 74.52 -7.15 -3.87
37 10 0 0 0 46.59 50.27 42.88 76.23 -5.19 -1.76
38 7 0 0 0 48.67 52.02 43.38 77.3 -4.02 -0.56
39 3 0 0 0 51.82 54.58 43.76 78.8 -2.09 1.57
40 0 90 0 0 30.97 21.52 18.41 53.51 42.81 -1.46
41 0 80 0 0 32.2 23.1 19.94 55.17 40.11 -1.85
42 0 70 0 0 33.46 24.69 21.36 56.77 37.68 -1.99
43 0 60 0 0 35.03 26.81 23.28 58.8 34.36 -2.22
44 0 50 0 0 37 29.59 25.67 61.3 30.16 -2.24
45 0 40 0 0 39.61 33.26 28.66 64.37 25.27 -2.01
46 0 30 0 0 42.44 37.52 31.8 67.67 19.71 -1.29
47 0 25 0 0 44.01 39.88 33.49 69.38 16.96 -0.87
48 0 20 0 0 45.76 42.48 35.26 71.2 14.13 -0.29
49 0 15 0 0 47.45 45.18 37.11 73.01 11.08 0.25
50 0 10 0 0 49.39 48.24 39.03 74.98 7.92 1.03
51 0 7 0 0 50.48 50.02 40.1 76.08 6.08 1.52
52 0 3 0 0 52.52 53.31 42.08 78.06 2.93 2.38
53 0 0 90 0 47.19 50.45 12.85 76.34 -4 51.62
54 0 0 80 0 47.47 50.69 14.04 76.49 -3.88 48.64
55 0 0 70 0 48.25 51.52 15.47 76.99 -3.88 45.87
56 0 0 60 0 48.66 51.93 17.23 77.24 -3.81 42.11
57 0 0 50 0 49.25 52.5 19.54 77.58 -3.68 37.61
58 0 0 40 0 49.95 53.12 22.63 77.95 -3.37 32.03
59 0 0 30 0 50.79 53.81 26.53 78.35 -2.89 25.66
60 0 0 25 0 51.26 54.19 28.6 78.57 -2.6 22.57
61 0 0 20 0 51.92 54.72 31.23 78.88 -2.19 18.93
62 0 0 15 0 52.33 55 33.76 79.04 -1.8 15.39
63 0 0 10 0 52.92 55.43 36.36 79.29 -1.36 12.1
64 0 0 7 0 53.41 55.84 38.22 79.53 -1.11 9.96
65 0 0 3 0 53.78 56.03 40.78 79.63 -0.63 6.76
66 0 0 0 90 11 11.18 8 39.88 1.65 4.49
67 0 0 0 80 12.68 12.92 9.33 42.64 1.52 4.39
68 0 0 0 70 14.37 14.67 10.69 45.18 1.38 4.27
69 0 0 0 60 16.68 17.07 12.55 48.35 1.25 4.21
70 0 0 0 50 20.04 20.56 15.23 52.46 1.08 4.16
71 0 0 0 40 24.45 25.15 18.81 57.22 0.89 4.06
72 0 0 0 30 30.08 31.01 23.43 62.52 0.68 3.93
73 0 0 0 25 32.99 34.04 25.82 65 0.58 3.87
74 0 0 0 20 36.53 37.73 28.69 67.82 0.49 3.89
75 0 0 0 15 40.09 41.45 31.66 70.49 0.39 3.79
76 0 0 0 10 44.01 45.54 34.87 73.25 0.28 3.79
77 0 0 0 7 46.39 48.03 36.85 74.84 0.24 3.76
78 0 0 0 3 50.3 52.11 40.1 77.35 0.14 3.7
79 40 100 0 0 18.35 14.75 17.33 45.29 23.43 -13.2
80 40 100 40 0 16.96 14.13 12.26 44.42 19.68 -1.75
81 0 100 40 0 28.65 19.87 12.03 51.69 41.91 11.45
82 40 100 100 0 16.09 13.71 8.71 43.82 17.41 8.64
83 0 40 100 0 34.65 30.08 9.96 61.72 20.48 35.16
84 40 40 100 0 19.78 20.55 10 52.46 -0.18 19.07
85 70 70 70 0 12.95 13.15 10.52 42.99 1.81 1.04
86 40 0 100 0 24.76 31.58 11.63 62.99 -22.67 32.1
87 100 40 100 0 11.22 14.09 10.11 44.36 -16.04 4.72
88 100 0 40 0 15.55 22.33 19.84 54.38 -31.19 -3.03
89 100 40 40 0 12.72 15.21 15.63 45.93 -12.39 -8.09
90 100 40 0 0 14.67 16.27 24.68 47.32 -6.02 -24.56
91 100 100 40 0 10.78 10.8 12.14 39.25 2.74 -10.31
92 70 100 20 0 13.51 12.29 14.45 41.67 11.12 -12.47
93 20 70 20 0 23.86 19.5 16.56 51.27 23.95 -1.11
94 20 70 40 0 23.25 19.24 13.71 50.96 22.57 5.5
95 20 100 70 0 20.8 16.09 9.83 47.09 27.94 10.38
96 20 70 70 0 22.53 18.83 10.67 50.49 21.38 13.51
97 20 70 100 0 22.08 18.52 9.07 50.13 20.87 18.21
98 20 20 70 0 29.08 30.46 13.21 62.05 -1.11 25.97
99 70 20 100 0 15.29 19.47 10.79 51.23 -19.15 14.41
100 70 20 70 0 15.88 19.98 13.15 51.81 -18.22 8.48
101 100 20 70 0 12.92 17.36 13.07 48.71 -23.07 3.36
102 70 20 20 0 18.35 21.82 22.89 53.84 -13.44 -10.03
103 100 70 20 0 12.01 12.49 15.94 41.98 -0.25 -15.64
104 70 70 20 0 14.42 13.96 16.02 44.18 6.01 -12.05
105 70 100 70 0 12.61 11.91 10.29 41.07 7.77 -1.52
106 40 70 40 0 18.29 16.43 13.63 47.53 13.44 -0.21
107 20 40 20 0 27.9 25.98 20.9 58.01 11.68 1.07
108 70 100 100 0 12.06 11.66 8.92 40.67 5.74 2.43
109 20 40 40 0 27.01 25.44 16.49 57.5 10.36 9.79
110 70 70 100 0 13 13.37 9.3 43.32 0.7 5.66
111 40 40 70 0 19.95 20.49 11.88 52.39 0.94 13.1
112 20 20 40 0 30.18 31.33 18.88 62.78 -0.1 13.51
113 20 20 20 0 31.64 32.38 24.63 63.66 1.5 3.69
114 100 70 100 0 10.37 11.59 9.51 40.55 -6.02 0.17
115 70 40 70 0 14.76 16.87 12.21 48.09 -8.77 4.72
116 40 20 40 0 24.07 26.75 18.66 58.75 -7.35 7.03
117 100 70 70 0 10.99 12.02 10.72 41.25 -4.33 -2.58
118 40 40 20 0 22.37 22.27 20.61 54.31 4.16 -4.72
119 100 100 70 0 10.16 10.59 10.13 38.88 -0.43 -4.78
120 40 20 20 0 24.74 27.17 23.75 59.13 -6.11 -2.52
121 70 40 40 0 15.52 17.46 15.77 48.83 -7.48 -3.41
122 100 85 85 100 6.56 6.83 5.51 31.42 -0.28 0.6
123 100 85 85 80 6.85 7.15 5.8 32.14 -0.37 0.48
124 100 85 85 60 7.18 7.51 6.19 32.93 -0.52 0.03
125 80 65 65 100 6.71 6.96 5.63 31.72 -0.06 0.56
126 80 65 65 80 7.11 7.4 6.02 32.69 -0.2 0.38
127 80 65 65 60 7.78 8.12 6.68 34.22 -0.46 0.09
128 80 65 65 40 8.93 9.35 7.78 36.66 -0.77 -0.23
129 60 45 45 100 7.32 7.56 5.89 33.04 0.37 1.57
130 60 45 45 80 7.94 8.22 6.43 34.43 0.2 1.52
131 60 45 45 60 9.15 9.52 7.59 36.97 -0.22 1.03
132 60 45 45 40 10.8 11.4 9.28 40.25 -1.4 0.45
133 60 45 45 20 13.13 13.99 11.55 44.22 -2.33 -0.03
134 40 27 27 100 8.11 8.37 6.37 34.74 0.43 2.33
135 40 27 27 80 9.2 9.52 7.29 36.96 0.2 2.25
136 40 27 27 60 11 11.43 8.85 40.3 -0.21 2.04
137 40 27 27 40 13.55 14.17 11.2 44.47 -0.74 1.5
138 40 27 27 20 17.21 18.23 14.96 49.77 -1.97 0.2
139 40 27 27 10 19.68 20.92 17.34 52.86 -2.39 -0.19
140 20 12 12 100 8.58 8.77 6.51 35.55 1.05 3.09
141 20 12 12 80 10.17 10.44 7.81 38.62 0.81 3.04
142 20 12 12 60 13.04 13.46 10.2 43.44 0.44 2.87
143 20 12 12 40 17.62 18.3 14.1 49.86 -0.15 2.56
144 20 12 12 20 24.74 25.87 20.47 57.92 -0.88 1.77
145 20 12 12 10 28.71 30.19 24.16 61.82 -1.57 1.37
146 10 6 6 100 9.27 9.45 6.88 36.84 1.31 3.73
147 10 6 6 80 11.43 11.7 8.61 40.74 1.05 3.68
148 10 6 6 60 15.09 15.53 11.61 46.36 0.66 3.5
149 10 6 6 40 20.93 21.66 16.49 53.67 0.18 3.19
150 10 6 6 20 29.32 30.53 23.72 62.11 -0.44 2.67
151 10 6 6 10 34.47 36.02 28.39 66.54 -0.89 2.17
152 100 85 85 0 10 10.72 9.68 39.1 -2.54 -2.91
153 80 65 65 0 12.13 12.92 11.35 42.64 -2.25 -2.13
154 60 45 45 0 16.33 17.4 14.79 48.75 -2.46 -1.12
155 40 27 27 0 23.61 25.1 20.76 57.17 -2.56 -0.11
156 20 12 12 0 34.68 36.56 29.44 66.94 -1.93 1.16
157 10 6 6 0 42.65 44.68 35.52 72.68 -1.27 1.89
158 5 3 3 0 47.1 49.26 38.79 75.61 -1.11 2.45
159 100 0 0 20 14.2 17.97 23.43 49.46 -18.14 -18.58
160 0 100 0 20 21.39 15.59 13.24 46.44 33.57 -1.04
161 0 0 100 20 31.09 33.14 9.6 64.27 -3.15 40.77
162 100 100 0 20 10 9.69 13.19 37.28 5.27 -16.67
163 100 0 100 20 11.55 16.2 9.29 47.23 -26.11 12.45
164 0 100 100 20 19.36 14.4 7.25 44.8 30.72 15.9
165 40 40 0 20 17.15 16.78 18.26 47.99 5.36 -10.66
166 40 0 40 20 20.2 24.18 15.74 56.27 -14.55 9.49
167 0 40 40 20 25.22 22.3 12.86 54.34 16.55 13.65
168 100 100 0 40 8.54 8.34 10.16 34.68 4.43 -12.13
169 100 0 100 40 9.9 13.01 7.95 42.77 -19.23 9.66
170 0 100 100 40 14.95 11.84 6.53 40.96 23.1 12.36
171 40 40 0 40 13.59 13.4 13.54 43.36 4.32 -7.14
172 40 0 40 40 15.51 18.07 11.85 49.58 -10.72 8.34
173 0 40 40 40 18.7 16.99 10.08 48.24 12.5 11.53
174 100 0 0 70 8.55 9.91 10.12 37.68 -8.38 -6.83
175 0 100 0 70 11.24 9.29 7.45 36.53 17.79 0.83
176 0 0 100 70 13.83 14.53 6.25 44.98 -1.16 20.54
177 100 100 0 70 7 6.94 7.58 31.68 3.08 -8.02
178 100 0 100 70 7.79 9.65 6.47 37.21 -13.21 6.12
179 0 100 100 70 10.96 9.19 5.5 36.34 16.59 9.13
180 40 40 0 70 9.58 9.47 8.62 36.88 3.67 -3.04
181 40 0 40 70 10.58 11.8 7.97 40.9 -5.86 6.35
182 0 40 40 70 12.01 11.21 7.08 39.93 8.62 8.21
183 0 0 0 0 54.94 56.96 44.02 80.16 0.05 3.58
184 0 10 0 0 49.52 48.31 39.01 75.02 8.07 1.14
185 0 20 0 0 45.62 42.31 35.14 71.09 14.25 -0.32
186 0 40 0 0 39.44 33.1 28.44 64.25 25.26 -1.86
187 0 70 0 0 33.27 24.5 21.13 56.59 37.82 -1.85
188 0 100 0 0 30.21 20.55 17.31 52.45 44.53 -0.81
189 10 0 0 0 46.41 50.08 42.85 76.12 -5.22 -1.93
190 10 10 0 0 41.85 42.61 38.04 71.29 2.32 -3.99
191 10 20 0 0 38.57 37.37 34.25 67.55 8.26 -5.13
192 10 40 0 0 33.3 29.25 27.83 61.01 18.87 -6.45
193 10 70 0 0 28.09 21.68 20.79 53.69 31.05 -6.16
194 10 100 0 0 25.54 18.25 17.18 49.8 37.51 -5.08
195 20 0 0 0 40.64 45.16 41.8 73 -8.71 -5.99
196 20 10 0 0 36.78 38.59 37.24 68.45 -1.39 -7.79
197 20 20 0 0 33.82 33.81 33.45 64.81 4.3 -8.68
198 20 40 0 0 29.27 26.57 27.24 58.57 14.61 -9.65
199 20 70 0 0 24.76 19.8 20.54 51.61 26.4 -9.25
200 20 100 0 0 22.58 16.75 17.1 47.95 32.55 -8.09
201 40 0 0 0 31.85 37.34 40.01 67.53 -14.44 -13.1
202 40 10 0 0 29.02 32.24 35.7 63.54 -7.76 -14.14
203 40 20 0 0 26.82 28.44 32.26 60.28 -2.42 -14.72
204 40 40 0 0 23.4 22.66 26.59 54.72 7.04 -15.19
205 40 70 0 0 19.88 17.07 20.31 48.35 17.98 -14.38
206 40 100 0 0 18.22 14.61 17.19 45.09 23.59 -13.23
207 70 0 0 0 23.47 29.38 37.56 61.12 -20.23 -20.88
208 70 10 0 0 21.59 25.71 33.78 57.76 -14.3 -21.32
209 70 20 0 0 20.07 22.87 30.6 54.94 -9.47 -21.38
210 70 40 0 0 17.7 18.59 25.56 50.21 -1.19 -21.17
211 70 70 0 0 15.31 14.45 20.06 44.88 8.34 -19.87
212 70 100 0 0 14.05 12.47 17.2 41.95 13.32 -18.68
213 100 0 0 0 19.31 25.18 36.1 57.25 -23.22 -25.52
214 100 10 0 0 17.89 22.25 32.51 54.29 -17.81 -25.42
215 100 20 0 0 16.72 19.99 29.66 51.82 -13.52 -25.27
216 100 40 0 0 14.91 16.52 25 47.64 -5.95 -24.6
217 100 70 0 0 12.91 12.98 19.8 42.74 2.62 -23
218 100 100 0 0 11.93 11.34 17.17 40.16 7.11 -21.69
219 0 0 10 0 53.2 55.7 36.36 79.45 -1.3 12.37
220 0 10 10 0 48.03 47.27 32.61 74.36 6.86 9.03
221 0 20 10 0 44.38 41.51 29.59 70.53 13.06 7.11
222 0 40 10 0 38.51 32.51 24.35 63.76 24.41 4.38
223 0 70 10 0 32.59 24.09 18.54 56.18 37.16 2.88
224 0 100 10 0 29.63 20.19 15.4 52.05 44.1 3.02
225 10 0 10 0 44.82 49.01 35.51 75.46 -6.91 6.7
226 10 10 10 0 40.49 41.71 31.82 70.67 0.82 3.87
227 10 20 10 0 37.45 36.69 28.92 67.05 6.85 2.18
228 10 40 10 0 32.48 28.77 23.9 60.58 17.82 -0.29
229 10 70 10 0 27.48 21.34 18.28 53.32 30.28 -1.5
230 10 100 10 0 25.06 17.99 15.37 49.48 36.84 -1.32
231 20 0 10 0 39.21 44.26 34.61 72.4 -10.6 2.72
232 20 10 10 0 35.46 37.76 31.05 67.84 -3.16 0.17
233 20 20 10 0 32.82 33.24 28.24 64.36 2.73 -1.34
234 20 40 10 0 28.58 26.22 23.44 58.25 13.37 -3.45
235 20 70 10 0 24.26 19.55 18.09 51.33 25.45 -4.51
236 20 100 10 0 22.18 16.57 15.36 47.72 31.75 -4.35
237 40 0 10 0 30.58 36.62 33.14 66.99 -16.74 -4.47
238 40 10 10 0 27.9 31.6 29.9 63.01 -9.84 -6.37
239 40 20 10 0 25.97 28.04 27.31 59.92 -4.35 -7.44
240 40 40 10 0 22.76 22.37 22.87 54.41 5.47 -8.99
241 40 70 10 0 19.44 16.91 17.98 48.15 16.69 -9.75
242 40 100 10 0 17.82 14.44 15.47 44.86 22.49 -9.53
243 70 0 10 0 22.41 28.84 31.32 60.64 -22.91 -12.67
244 70 10 10 0 20.64 25.21 28.4 57.28 -16.74 -13.82
245 70 20 10 0 19.3 22.56 26.02 54.61 -11.86 -14.38
246 70 40 10 0 17.18 18.39 22.16 49.97 -3.03 -15.29
247 70 70 10 0 14.78 14.17 17.68 44.48 6.9 -15.41
248 70 100 10 0 13.68 12.3 15.47 41.68 12.15 -15
249 100 0 10 0 18.34 24.72 30.14 56.8 -26.26 -17.44
250 100 10 10 0 17.02 21.86 27.51 53.88 -20.69 -18.2
251 100 20 10 0 16.01 19.7 25.32 51.49 -16.1 -18.53
252 100 40 10 0 14.35 16.29 21.7 47.35 -8.09 -18.91
253 100 70 10 0 12.48 12.81 17.63 42.47 0.89 -18.74
254 100 100 10 0 11.59 11.21 15.52 39.94 5.61 -18.15
255 0 0 20 0 52.06 54.85 31.16 78.95 -2.15 19.15
256 0 10 20 0 47.05 46.53 28.14 73.89 6.18 15.25
257 0 20 20 0 43.39 40.75 25.54 70 12.46 13
258 0 40 20 0 37.74 32.01 21.33 63.35 23.73 9.41
259 0 70 20 0 32.04 23.79 16.57 55.88 36.51 6.82
260 0 100 20 0 29.3 20.04 14.03 51.89 43.55 6.25
261 10 0 20 0 43.66 48.17 30.35 74.93 -8.01 13.48
262 10 10 20 0 39.59 41.09 27.42 70.24 -0.08 10.16
263 10 20 20 0 36.55 36.04 25 66.55 6.03 8.01
264 10 40 20 0 31.9 28.48 21.05 60.32 16.85 4.74
265 10 70 20 0 27.06 21.16 16.42 53.12 29.4 2.41
266 10 100 20 0 24.72 17.83 14.01 49.29 36.19 1.83
267 20 0 20 0 38.03 43.38 29.56 71.81 -11.85 9.37
268 20 10 20 0 34.53 37.1 26.68 67.35 -4.2 6.43
269 20 20 20 0 31.99 32.7 24.48 63.91 1.69 4.4
270 20 40 20 0 27.82 25.75 20.55 57.8 12.3 1.42
271 20 70 20 0 23.73 19.27 16.2 51 24.53 -0.7
272 20 100 20 0 21.71 16.31 13.89 47.38 31.01 -1.17
273 40 0 20 0 29.54 35.86 28.34 66.42 -18.16 2.04
274 40 10 20 0 27.01 30.97 25.79 62.48 -11.13 -0.41
275 40 20 20 0 25.08 27.41 23.62 59.35 -5.64 -1.89
276 40 40 20 0 22.12 22.02 20.22 54.05 4.18 -4.39
277 40 70 20 0 18.94 16.66 16.15 47.83 15.5 -6.08
278 40 100 20 0 17.38 14.2 14.02 44.52 21.6 -6.42
279 70 0 20 0 21.44 28.13 26.86 60 -24.68 -6.53
280 70 10 20 0 19.82 24.64 24.55 56.72 -18.34 -8.13
281 70 20 20 0 18.52 22.01 22.63 54.04 -13.39 -9.18
282 70 40 20 0 16.51 18 19.55 49.5 -4.67 -10.84
283 70 70 20 0 14.37 14.01 16.05 44.25 5.42 -12.01
284 70 100 20 0 13.28 12.09 14.07 41.36 11.01 -12.01
285 100 0 20 0 17.44 24.05 25.92 56.14 -28.19 -11.58
286 100 10 20 0 16.25 21.31 23.8 53.28 -22.45 -12.69
287 100 20 20 0 15.29 19.21 22.05 50.93 -17.86 -13.42
288 100 40 20 0 13.7 15.86 19.14 46.79 -9.76 -14.63
289 100 70 20 0 12.09 12.62 15.94 42.19 -0.55 -15.27
290 100 100 20 0 11.26 11.05 14.16 39.66 4.45 -15.17
291 0 0 40 0 50.11 53.29 23.32 78.05 -3.38 30.9
292 0 10 40 0 45.37 45.3 21.33 73.09 4.89 26.2
293 0 20 40 0 41.84 39.63 19.6 69.21 11.25 23.04
294 0 40 40 0 36.56 31.27 16.88 62.74 22.51 17.91
295 0 70 40 0 31.26 23.4 13.7 55.48 35.39 13.32
296 0 100 40 0 28.7 19.82 12.02 51.63 42.35 11.38
297 10 0 40 0 41.79 46.66 22.95 73.97 -9.41 24.58
298 10 10 40 0 37.81 39.75 20.94 69.29 -1.64 20.43
299 10 20 40 0 35.18 35.11 19.44 65.83 4.55 17.57
300 10 40 40 0 30.8 27.8 16.82 59.7 15.49 12.82
301 10 70 40 0 26.46 20.89 13.77 52.83 28.23 8.56
302 10 100 40 0 24.27 17.67 12.09 49.09 35.11 6.79
303 20 0 40 0 36.17 41.88 22.55 70.79 -13.49 19.84
304 20 10 40 0 32.99 35.98 20.69 66.51 -5.91 16.14
305 20 20 40 0 30.69 31.8 19.21 63.18 0.1 13.5
306 20 40 40 0 26.94 25.28 16.67 57.35 10.69 9.11
307 20 70 40 0 23.21 19.08 13.73 50.78 23.16 5.14
308 20 100 40 0 21.4 16.25 12.17 47.31 29.87 3.5
309 40 0 40 0 27.91 34.57 21.78 65.41 -20.16 12.07
310 40 10 40 0 25.66 29.99 20.13 61.65 -13.07 8.92
311 40 20 40 0 23.93 26.63 18.69 58.63 -7.46 6.75
312 40 40 40 0 21.17 21.4 16.36 53.39 2.56 3.01
313 40 70 40 0 18.37 16.35 13.64 47.43 14.31 -0.4
314 40 100 40 0 17.03 14.05 12.21 44.31 20.55 -1.78
315 70 0 40 0 20.09 27.1 20.83 59.07 -27.13 3.03
316 70 10 40 0 18.6 23.75 19.28 55.84 -20.77 0.69
317 70 20 40 0 17.52 21.34 18.07 53.32 -15.61 -1.02
318 70 40 40 0 15.8 17.6 16.12 49.01 -6.58 -3.96
319 70 70 40 0 13.9 13.76 13.67 43.88 4.04 -6.59
320 70 100 40 0 12.92 11.93 12.28 41.1 9.72 -7.55
321 100 0 40 0 16.24 23.15 20.18 55.22 -30.89 -2.28
322 100 10 40 0 15.22 20.61 18.83 52.52 -25.1 -4.08
323 100 20 40 0 14.42 18.69 17.73 50.32 -20.43 -5.45
324 100 40 40 0 13.12 15.6 15.87 46.45 -11.97 -7.77
325 100 70 40 0 11.65 12.44 13.63 41.91 -2.41 -9.87
326 100 100 40 0 10.94 10.95 12.39 39.5 2.87 -10.61
327 0 0 70 0 48.33 51.66 15.84 77.08 -4.03 45.11
328 0 10 70 0 43.76 43.97 14.73 72.21 4.03 39.46
329 0 20 70 0 40.55 38.7 13.89 68.54 10.22 35.31
330 0 40 70 0 35.45 30.54 12.43 62.12 21.46 28.29
331 0 70 70 0 30.44 22.93 10.68 55 34.42 21.27
332 0 100 70 0 27.97 19.43 9.7 51.18 41.41 17.86
333 10 0 70 0 40.13 45.18 15.82 73.01 -10.36 38.15
334 10 10 70 0 36.45 38.64 14.7 68.49 -2.67 33.15
335 10 20 70 0 33.86 34.14 13.9 65.07 3.31 29.32
336 10 40 70 0 29.75 27.07 12.44 59.04 14.41 22.93
337 10 70 70 0 25.68 20.45 10.78 52.34 27.13 16.36
338 10 100 70 0 23.62 17.34 9.77 48.68 34.03 13.32
339 20 0 70 0 34.65 40.54 15.66 69.85 -14.59 33.08
340 20 10 70 0 31.59 34.84 14.62 65.62 -7.13 28.41
341 20 20 70 0 29.46 30.91 13.83 62.43 -1.3 24.95
342 20 40 70 0 26.01 24.68 12.45 56.76 9.47 18.98
343 20 70 70 0 22.48 18.68 10.85 50.31 21.88 12.63
344 20 100 70 0 20.77 15.94 9.91 46.89 28.63 9.76
345 40 0 70 0 26.47 33.32 15.24 64.42 -21.66 24.76
346 40 10 70 0 24.41 29.01 14.33 60.79 -14.69 20.81
347 40 20 70 0 22.85 25.84 13.62 57.89 -9.08 17.7
348 40 40 70 0 20.33 20.88 12.38 52.82 0.96 12.39
349 40 70 70 0 17.72 16 10.85 46.98 12.83 6.88
350 40 100 70 0 16.43 13.75 9.96 43.87 19.17 4.38
351 70 0 70 0 18.91 26.12 14.97 58.15 -29.11 14.64
352 70 10 70 0 17.58 23 14.13 55.07 -22.83 11.48
353 70 20 70 0 16.58 20.69 13.47 52.61 -17.69 9.01
354 70 40 70 0 15 17.09 12.38 48.37 -8.58 4.73
355 70 70 70 0 13.21 13.36 10.96 43.3 2.2 0.21
356 70 100 70 0 12.37 11.66 10.13 40.67 7.93 -1.67
357 100 0 70 0 15.17 22.3 14.65 54.34 -33.3 8.87
358 100 10 70 0 14.24 19.91 13.88 51.74 -27.69 6.39
359 100 20 70 0 13.56 18.11 13.33 49.63 -22.9 4.25
360 100 40 70 0 12.39 15.18 12.27 45.88 -14.39 0.73
361 100 70 70 0 11.08 12.14 11 41.44 -4.53 -3.13
362 100 100 70 0 10.43 10.73 10.3 39.12 0.64 -4.92
363 0 0 100 0 47.34 50.66 12.07 76.47 -4.15 54.05
364 0 10 100 0 42.82 43.05 11.39 71.59 3.91 47.66
365 0 20 100 0 39.67 37.89 10.87 67.94 10.07 42.96
366 0 40 100 0 34.7 29.94 10 61.6 21.18 34.81
367 0 70 100 0 29.85 22.53 8.97 54.58 34 26.24
368 0 100 100 0 27.56 19.2 8.46 50.92 40.88 21.79
369 10 0 100 0 39.02 44.08 12.05 72.29 -10.72 46.9
370 10 10 100 0 35.54 37.77 11.41 67.85 -2.93 41.14
371 10 20 100 0 33.13 33.47 11 64.54 3.05 36.7
372 10 40 100 0 29.12 26.61 10.11 58.61 13.88 29.31
373 10 70 100 0 25.17 20.14 9.12 52 26.44 21.25
374 10 100 100 0 23.2 17.1 8.57 48.39 33.44 17.02
375 20 0 100 0 33.66 39.55 12.1 69.15 -14.98 41.36
376 20 10 100 0 30.79 34.1 11.46 65.04 -7.57 36.14
377 20 20 100 0 28.72 30.24 11.01 61.86 -1.68 32.05
378 20 40 100 0 25.3 24.11 10.14 56.2 8.88 25.04
379 20 70 100 0 21.92 18.33 9.18 49.89 21.13 17.4
380 20 100 100 0 20.34 15.68 8.68 46.55 28.02 13.44
381 40 0 100 0 25.65 32.5 11.99 63.76 -22.21 32.38
382 40 10 100 0 23.63 28.28 11.4 60.14 -15.3 27.87
383 40 20 100 0 22.13 25.22 10.98 57.29 -9.75 24.25
384 40 40 100 0 19.73 20.43 10.21 52.32 0.16 18.14
385 40 70 100 0 17.23 15.7 9.27 46.58 11.85 11.39
386 40 100 100 0 16.08 13.55 8.78 43.58 18.4 7.97
387 70 0 100 0 18.16 25.4 11.98 57.47 -30.05 21.55
388 70 10 100 0 16.95 22.45 11.43 54.5 -23.77 18.06
389 70 20 100 0 15.94 20.14 10.99 52 -18.7 15.11
390 70 40 100 0 14.46 16.68 10.3 47.86 -9.58 10.14
391 70 70 100 0 12.88 13.17 9.43 43.02 1.24 4.71
392 70 100 100 0 12.13 11.54 8.96 40.48 7.08 1.95
393 100 0 100 0 14.44 21.59 11.87 53.59 -34.42 15.2
394 100 10 100 0 13.62 19.35 11.38 51.09 -28.8 12.34
395 100 20 100 0 12.96 17.6 11 49.01 -24.06 9.91
396 100 40 100 0 11.86 14.78 10.34 45.33 -15.68 5.67
397 100 70 100 0 10.74 11.97 9.59 41.17 -5.86 0.98
398 100 100 100 0 10.17 10.58 9.08 38.86 -0.2 -1.24
399 0 0 0 20 37.13 38.38 29.29 68.3 0.4 3.74
400 0 10 0 20 33.72 33.18 26.24 64.31 6.11 1.95
401 0 20 0 20 31.33 29.55 23.93 61.26 10.71 0.83
402 0 40 0 20 27.44 23.81 19.95 55.9 18.99 -0.64
403 0 70 0 20 23.49 18.22 15.53 49.76 28.81 -1.22
404 0 100 0 20 21.49 15.58 13.15 46.42 34.1 -0.83
405 10 0 0 20 32.21 34.38 28.42 65.27 -3.37 -0.08
406 10 10 0 20 29.47 30 25.66 61.65 2.11 -1.62
407 10 20 0 20 27.42 26.77 23.45 58.76 6.54 -2.59
408 10 40 0 20 24.12 21.71 19.72 53.72 14.54 -3.91
409 10 70 0 20 20.77 16.77 15.53 47.97 23.97 -4.3
410 10 100 0 20 19.08 14.42 13.28 44.82 29.19 -3.92
411 20 0 0 20 28.55 31.25 27.59 62.72 -6.05 -3.08
412 20 10 0 20 26.18 27.35 24.99 59.29 -0.79 -4.49
413 20 20 0 20 24.46 24.55 22.92 56.64 3.43 -5.25
414 20 40 0 20 21.66 20.1 19.46 51.95 11.05 -6.41
415 20 70 0 20 18.77 15.68 15.48 46.55 20.15 -6.65
416 20 100 0 20 17.3 13.55 13.33 43.58 25.22 -6.21
417 40 0 0 20 23.04 26.41 26.29 58.43 -10.55 -8.28
418 40 10 0 20 21.26 23.31 23.92 55.39 -5.67 -9.27
419 40 20 0 20 19.94 21.02 22.05 52.98 -1.66 -9.89
420 40 40 0 20 17.83 17.45 18.9 48.82 5.44 -10.61
421 40 70 0 20 15.58 13.81 15.25 43.96 13.92 -10.54
422 40 100 0 20 14.43 12.04 13.27 41.28 18.56 -9.99
423 70 0 0 20 17.46 21.22 24.64 53.19 -15.36 -14.37
424 70 10 0 20 16.33 19.03 22.62 50.72 -10.97 -14.9
425 70 20 0 20 15.41 17.33 20.98 48.67 -7.39 -15.2
426 70 40 0 20 14.01 14.68 18.2 45.2 -0.93 -15.34
427 70 70 0 20 12.37 11.86 14.94 40.99 6.54 -14.87
428 70 100 0 20 11.59 10.53 13.22 38.78 10.63 -14.17
429 100 0 0 20 14.19 17.95 23.37 49.44 -18.07 -18.5
430 100 10 0 20 13.36 16.23 21.46 47.28 -13.99 -18.56
431 100 20 0 20 12.7 14.9 19.99 45.49 -10.63 -18.65
432 100 40 0 20 11.52 12.64 17.3 42.22 -4.71 -18.44
433 100 70 0 20 10.32 10.41 14.33 38.58 2.15 -17.48
434 100 100 0 20 9.75 9.41 12.87 36.75 5.55 -16.69
435 0 0 10 20 35.96 37.48 24.92 67.64 -0.59 10.02
436 0 10 10 20 32.74 32.47 22.56 63.73 5.17 7.65
437 0 20 10 20 30.51 29.01 20.75 60.79 9.73 6.17
438 0 40 10 20 26.85 23.45 17.58 55.54 18.15 3.89
439 0 70 10 20 23.05 17.99 13.99 49.48 28.08 2.22
440 0 100 10 20 21.14 15.41 12.05 46.2 33.42 1.92
441 10 0 10 20 31.21 33.66 24.33 64.69 -4.51 6.02
442 10 10 10 20 28.56 29.35 22.12 61.09 1 3.97
443 10 20 10 20 26.72 26.35 20.43 58.37 5.42 2.63
444 10 40 10 20 23.58 21.39 17.39 53.37 13.67 0.58
445 10 70 10 20 20.37 16.57 13.99 47.71 23.19 -0.86
446 10 100 10 20 18.69 14.22 12.1 44.54 28.41 -1.08
447 20 0 10 20 27.64 30.61 23.68 62.18 -7.29 2.87
448 20 10 10 20 25.44 26.89 21.65 58.87 -2.03 1.06
